X:2108 
T:Haink fer thie anmagh 
C:Tom Kermode, Bradda
O:Isle of Man
C:Traditional
Z:Clague collection
B:Kiaull Vannin #108 
M:2/4 
L:1/8 
Q:160 
K:G 
D2|G3 G|G2 GG|AA Ac|B2 BA|G2 GG|GB AG|F2 E2|D2 D2| 
G2 G2|G3 G|A2 Ac|B2 B2|d2 cB|e2 c2|B2 AB|G2|| 

